Newaita-dark/actions/22/format-text-uppercase.svg

<svg xmlns="http://www.w3.org/2000/svg" xmlns:xlink="http://www.w3.org/1999/xlink" width="22px" height="22px" viewBox="0 0 22 22" version="1.1">
<g id="surface1">
     <defs>
  <style id="current-color-scheme" type="text/css">
   .ColorScheme-Text { color:#eeeeee; } .ColorScheme-Highlight { color:#424242; }
  </style>
 </defs>
<path style="fill:currentColor" class="ColorScheme-Text" d="M 6.367188 8.359375 C 4.351562 8.359375 2.730469 9.574219 2.730469 11.085938 L 2.730469 19.273438 L 4.546875 19.273438 L 4.546875 15.636719 L 8.1875 15.636719 L 8.1875 19.273438 L 10.003906 19.273438 L 10.003906 11.085938 C 10.003906 9.574219 8.382812 8.359375 6.367188 8.359375 Z M 6.367188 10.175781 C 7.375 10.175781 8.1875 10.582031 8.1875 11.085938 L 8.1875 13.816406 L 4.546875 13.816406 L 4.546875 11.085938 C 4.546875 10.582031 5.359375 10.175781 6.367188 10.175781 Z M 6.367188 10.175781 "/>
     <defs>
  <style id="current-color-scheme" type="text/css">
   .ColorScheme-Text { color:#eeeeee; } .ColorScheme-Highlight { color:#424242; }
  </style>
 </defs>
<path style="fill:currentColor" class="ColorScheme-Text" d="M 12.28125 7.449219 L 18.648438 7.449219 L 15.464844 2.902344 Z M 12.28125 7.449219 "/>
     <defs>
  <style id="current-color-scheme" type="text/css">
   .ColorScheme-Text { color:#eeeeee; } .ColorScheme-Highlight { color:#424242; }
  </style>
 </defs>
<path style="fill:currentColor" class="ColorScheme-Text" d="M 11.824219 8.359375 L 11.824219 19.273438 L 15.007812 19.273438 C 17.277344 19.273438 19.101562 17.753906 19.101562 15.863281 L 19.101562 15.40625 C 19.101562 14.226562 18.386719 13.1875 17.296875 12.578125 C 17.574219 12.148438 17.738281 11.636719 17.738281 11.085938 C 17.738281 9.574219 16.519531 8.359375 15.007812 8.359375 Z M 13.644531 10.175781 L 15.007812 10.175781 C 15.511719 10.175781 15.917969 10.582031 15.917969 11.085938 C 15.917969 11.589844 15.511719 11.996094 15.007812 11.996094 L 13.644531 11.996094 Z M 13.644531 13.816406 L 15.007812 13.816406 C 16.269531 13.816406 17.28125 14.628906 17.28125 15.636719 C 17.28125 16.644531 16.269531 17.453125 15.007812 17.453125 L 13.644531 17.453125 Z M 13.644531 13.816406 "/>
</g>
</svg>

<svg xmlns="http://www.w3.org/2000/svg" width="22pt" height="22pt" viewBox="0 0 22 22"><path d="M6.367 8.36c-2.015 0-3.637 1.214-3.637 2.726v8.187h1.817v-3.636h3.64v3.636h1.817v-8.187c0-1.512-1.621-2.727-3.637-2.727zm0 1.816c1.008 0 1.82.406 1.82.91v2.73h-3.64v-2.73c0-.504.812-.91 1.82-.91zm0 0M11.824 8.36v10.913h3.184c2.27 0 4.094-1.52 4.094-3.41v-.457c0-1.18-.715-2.219-1.805-2.828.277-.43.441-.941.441-1.492a2.722 2.722 0 0 0-2.73-2.727zm1.82 1.816h1.364c.504 0 .91.406.91.91s-.406.91-.91.91h-1.363zm0 3.64h1.364c1.262 0 2.273.813 2.273 1.82 0 1.009-1.011 1.817-2.273 1.817h-1.363zm0 0" fill="#bdbdbd"/><path d="M11.863 6.625a.647.647 0 0 0 .645.672h5.457c.234 0 .45-.125.562-.328a.651.651 0 0 0-.007-.649l-2.73-4.55a.648.648 0 0 0-.552-.313.654.654 0 0 0-.554.313l-2.727 4.55a.595.595 0 0 0-.094.305zm1.785-.617l1.59-2.653 1.59 2.653zm0 0" fill="#26a69a"/></svg>
